X: 12094
T: Euan's
R: polka
M: 2/4
K: Adorian
|:E>A Ac|BA B/c/d|ec BA|cB A2|
E>A Ac|BA B/c/d|gf dc|B2 A2:|
K: Amaj
|:a>f ec|ea fe|a>f ec|ec B2|
a>f ec|ea fe|fe cB|1 B2 A2:|2 B4||

